svg/fluentui-system-icons/ic_fluent_globe_clock_20_regular.svg

<svg width="20" height="20" viewBox="0 0 20 20" fill="none" xmlns="http://www.w3.org/2000/svg">
<path d="M10 18C10.085 18 10.1696 17.9987 10.2539 17.996C9.98125 17.6653 9.7465 17.3021 9.55629 16.9132C9.02035 16.7057 8.4582 16.1204 7.97822 15.0919C7.76073 14.6258 7.57172 14.0902 7.41936 13.5H9.09069C9.15419 13.1543 9.25003 12.8199 9.37494 12.5H7.20617C7.07345 11.7253 7 10.8833 7 10C7 9.11669 7.07345 8.27472 7.20617 7.5H12.7938C12.8865 8.04103 12.9503 8.61484 12.9803 9.21263C13.2998 9.12099 13.6312 9.05751 13.9716 9.02506C13.9407 8.50004 13.8853 7.98985 13.8074 7.5H16.5404C16.7914 8.15622 16.9464 8.85987 16.9884 9.5938C17.349 9.77706 17.6867 9.99891 17.996 10.2539C17.9987 10.1696 18 10.085 18 10C18 5.58172 14.4183 2 10 2C5.58172 2 2 5.58172 2 10C2 14.4183 5.58172 18 10 18ZM10 3C10.6568 3 11.4068 3.59025 12.0218 4.90814C12.2393 5.37419 12.4283 5.90978 12.5806 6.5H7.41936C7.57172 5.90978 7.76073 5.37419 7.97822 4.90814C8.59323 3.59025 9.34315 3 10 3ZM7.07203 4.48526C6.79564 5.07753 6.56498 5.75696 6.38931 6.5H3.93648C4.77295 5.05399 6.11182 3.93497 7.71442 3.38163C7.47297 3.71222 7.25828 4.08617 7.07203 4.48526ZM6.19265 7.5C6.06723 8.28832 6 9.12934 6 10C6 10.8707 6.06723 11.7117 6.19265 12.5H3.45963C3.16268 11.7236 3 10.8808 3 10C3 9.1192 3.16268 8.2764 3.45963 7.5H6.19265ZM6.38931 13.5C6.56498 14.243 6.79564 14.9225 7.07203 15.5147C7.25828 15.9138 7.47297 16.2878 7.71442 16.6184C6.11182 16.065 4.77295 14.946 3.93648 13.5H6.38931ZM12.2856 3.38163C13.8882 3.93497 15.2271 5.05399 16.0635 6.5H13.6107C13.435 5.75696 13.2044 5.07753 12.928 4.48526C12.7417 4.08617 12.527 3.71222 12.2856 3.38163ZM19 14.5C19 16.9853 16.9853 19 14.5 19C12.0147 19 10 16.9853 10 14.5C10 12.0147 12.0147 10 14.5 10C16.9853 10 19 12.0147 19 14.5ZM14.5 12C14.2239 12 14 12.2239 14 12.5V14.5C14 14.7761 14.2239 15 14.5 15H16C16.2761 15 16.5 14.7761 16.5 14.5C16.5 14.2239 16.2761 14 16 14H15V12.5C15 12.2239 14.7761 12 14.5 12Z" fill="#212121"/>
</svg>

<svg xmlns="http://www.w3.org/2000/svg" width="20" height="20"><path d="M10 18c.085 0 .17-.001.254-.004a5.504 5.504 0 0 1-.698-1.083c-.536-.207-1.098-.793-1.578-1.821A9.254 9.254 0 0 1 7.42 13.5h1.672a5.41 5.41 0 0 1 .284-1h-2.17A14.87 14.87 0 0 1 7 10c0-.883.073-1.725.206-2.5h5.588c.092.541.156 1.115.186 1.713.32-.092.651-.155.992-.188a15.538 15.538 0 0 0-.165-1.525h2.733c.251.656.406 1.36.448 2.094a5.47 5.47 0 0 1 1.008.66A8 8 0 1 0 10 18Zm0-15c.657 0 1.407.59 2.022 1.908.217.466.406 1.002.559 1.592H7.419c.153-.59.342-1.126.56-1.592C8.592 3.59 9.342 3 10 3ZM7.072 4.485A10.502 10.502 0 0 0 6.389 6.5H3.936a7.022 7.022 0 0 1 3.778-3.118c-.241.33-.456.704-.642 1.103ZM6.192 7.5A15.97 15.97 0 0 0 6 10c0 .87.067 1.712.193 2.5H3.46A6.984 6.984 0 0 1 3 10c0-.88.163-1.724.46-2.5h2.733Zm.197 6c.176.743.407 1.422.683 2.015.186.399.401.773.642 1.103A7.022 7.022 0 0 1 3.936 13.5H6.39Zm5.897-10.118A7.021 7.021 0 0 1 16.064 6.5H13.61a10.504 10.504 0 0 0-.683-2.015 6.635 6.635 0 0 0-.642-1.103ZM19 14.5a4.5 4.5 0 1 1-9 0 4.5 4.5 0 0 1 9 0ZM14.5 12a.5.5 0 0 0-.5.5v2a.5.5 0 0 0 .5.5H16a.5.5 0 0 0 0-1h-1v-1.5a.5.5 0 0 0-.5-.5Z"/></svg>
